docs/img/tittle.svg

<svg width="810" height="215" viewBox="0 0 810 215" fill="none" xmlns="http://www.w3.org/2000/svg">
<path d="M742.003 191.249V196.605H785.794C787.669 196.605 788.74 195.601 788.74 193.927C788.74 192.253 787.669 191.249 785.794 191.249H742.003ZM785.794 173.84H742.003V179.196H785.794C787.669 179.196 788.74 178.192 788.74 176.518C788.74 174.844 787.669 173.84 785.794 173.84ZM793.159 208.658H720.845V161.787H793.159C803.002 161.787 809.899 166.474 809.899 175.179C809.899 179.732 807.756 183.147 804.074 185.223C807.756 187.298 809.899 190.713 809.899 195.266C809.899 203.971 803.002 208.658 793.159 208.658Z" fill="#FDEEE3"/>
<path d="M628.451 208.658V161.787H715.496V173.84H649.609V179.196H715.496V191.249H649.609V196.605H715.496V208.658H628.451Z" fill="#FDEEE3"/>
<path d="M529.321 208.658V161.787H550.48V192.588H597.217V161.787H618.375V192.588H623.732V214.015H602.573V208.658H529.321Z" fill="#FDEEE3"/>
<path d="M414.303 208.658V161.787H442.559L468.606 193.927L494.652 161.787H523.98V208.658H502.821V181.138L480.524 208.658H456.687L435.461 182.477V208.658H414.303Z" fill="#FDEEE3"/>
<path d="M408.936 161.787V208.658H387.777V181.875L341.04 208.658H319.881V161.787H341.04V188.571L387.777 161.787H408.936Z" fill="#FDEEE3"/>
<path d="M247.273 196.605H291.064C292.938 196.605 294.01 195.601 294.01 193.927C294.01 192.253 292.938 191.249 291.064 191.249H247.273V196.605ZM298.429 208.658H226.114V161.787H313.16V173.84H247.273V179.196H298.429C308.272 179.196 315.168 185.223 315.168 193.927C315.168 202.632 308.272 208.658 298.429 208.658Z" fill="#FDEEE3"/>
<path d="M194.263 178.527H154.089C150.406 178.527 147.393 181.54 147.393 185.223C147.393 188.905 150.406 191.918 154.089 191.918H194.263C197.946 191.918 200.959 188.905 200.959 185.223C200.959 181.54 197.946 178.527 194.263 178.527ZM149.736 161.118H198.616C211.538 161.118 222.051 172.3 222.051 185.223C222.051 198.146 211.538 209.328 198.616 209.328H149.736C138.889 209.328 129.716 201.426 127.104 191.249H123.623V208.658H102.464V161.787H123.623V179.196H127.104C129.716 169.019 138.889 161.118 149.736 161.118Z" fill="#FDEEE3"/>
<path d="M49.8837 176.518L23.8371 208.658H0L37.9652 161.787H61.8022L99.7674 208.658H75.9304L49.8837 176.518Z" fill="#FDEEE3"/>
<path d="M714.786 81.2285H744.649L761.924 93.6157L779.199 81.2285H809.062L776.856 104.329L810 128.099H780.137L761.924 115.042L743.711 128.099H713.848L746.992 104.329L714.786 81.2285Z" fill="#FDEEE3"/>
<path d="M710.508 81.2285V128.099H689.35V101.316L642.613 128.099H621.454V81.2285H642.613V108.012L689.35 81.2285H710.508Z" fill="#FDEEE3"/>
<path d="M545.106 80.5589H593.986C606.908 80.5589 617.421 91.7409 617.421 104.664C617.421 117.587 606.908 128.769 593.986 128.769H545.106C532.183 128.769 521.671 117.587 521.671 104.664C521.671 91.7409 532.183 80.5589 545.106 80.5589ZM589.633 97.968H549.458C545.776 97.968 542.763 100.981 542.763 104.664C542.763 108.346 545.776 111.36 549.458 111.36H589.633C593.316 111.36 596.329 108.346 596.329 104.664C596.329 100.981 593.316 97.968 589.633 97.968Z" fill="#FDEEE3"/>
<path d="M451.089 110.69V116.047H494.88C496.755 116.047 497.826 115.042 497.826 113.368C497.826 111.694 496.755 110.69 494.88 110.69H451.089ZM494.88 93.2809H451.089V98.6375H494.88C496.755 98.6375 497.826 97.6332 497.826 95.9592C497.826 94.2853 496.755 93.2809 494.88 93.2809ZM502.245 128.099H429.931V81.2285H502.245C512.088 81.2285 518.985 85.9155 518.985 94.6201C518.985 99.1732 516.842 102.588 513.159 104.664C516.842 106.739 518.985 110.154 518.985 114.707C518.985 123.412 512.088 128.099 502.245 128.099Z" fill="#FDEEE3"/>
<path d="M369.39 128.099V97.2984H335.509V81.2285H424.563V97.2984H390.549V128.099H369.39Z" fill="#FDEEE3"/>
<path d="M231.714 102.655H275.504V97.2984H231.714C229.839 97.2984 228.768 98.3027 228.768 99.9767C228.768 101.651 229.839 102.655 231.714 102.655ZM226.357 81.2285H296.663V128.099H275.504V118.725H248.052L234.459 128.099H207.609L221.871 118.256C212.899 116.181 207.609 108.079 207.609 99.9767C207.609 90.6026 214.639 81.2285 226.357 81.2285Z" fill="#FDEEE3"/>
<path d="M155.683 95.9592L129.636 128.099H105.799L143.764 81.2285H167.601L205.566 128.099H181.729L155.683 95.9592Z" fill="#FDEEE3"/>
<path d="M34.6173 103.392L30.5998 112.029H76.6V97.2984H44.1253C39.6391 97.2984 36.4921 99.3071 34.6173 103.392ZM103.115 133.456H81.9566V128.099H21.1587V133.456H0V112.029H7.4993L14.2621 97.0975C19.15 86.4512 27.2519 81.2285 38.9026 81.2285H97.7587V112.029H103.115V133.456Z" fill="#FDEEE3"/>
<path d="M539.736 26.1136H495.946V31.4703H539.736C541.611 31.4703 542.683 30.4659 542.683 28.792C542.683 27.118 541.611 26.1136 539.736 26.1136ZM545.093 47.5402H474.787V0.669586H495.946V10.0437H545.093C556.811 10.0437 563.841 19.4178 563.841 28.792C563.841 38.1661 556.811 47.5402 545.093 47.5402ZM587.678 47.5402H566.52V0.669586H587.678V47.5402Z" fill="#FDEEE3"/>
<path d="M447.342 16.7395H403.552V22.0962H447.342C449.217 22.0962 450.288 21.0918 450.288 19.4178C450.288 17.7439 449.217 16.7395 447.342 16.7395ZM403.552 47.5402H382.393V0.669586H452.699C464.417 0.669586 471.447 10.0437 471.447 19.4178C471.447 28.792 464.417 38.1661 452.699 38.1661H403.552V47.5402Z" fill="#FDEEE3"/>
<path d="M329.812 15.4004L320.037 27.4528H339.588L329.812 15.4004ZM317.894 0.669586H341.731L379.696 47.5402H355.859L350.436 40.8444H309.189L303.766 47.5402H279.929L317.894 0.669586Z" fill="#FDEEE3"/>
<path d="M212.682 30.1311V35.4878H256.473C258.348 35.4878 259.419 34.4834 259.419 32.8094C259.419 31.1355 258.348 30.1311 256.473 30.1311H212.682ZM256.473 12.722H212.682V18.0787H256.473C258.348 18.0787 259.419 17.0743 259.419 15.4004C259.419 13.7264 258.348 12.722 256.473 12.722ZM263.838 47.5402H191.523V0.669586H263.838C273.681 0.669586 280.578 5.35665 280.578 14.0612C280.578 18.6143 278.435 22.0292 274.752 24.1049C278.435 26.1806 280.578 29.5955 280.578 34.1486C280.578 42.8531 273.681 47.5402 263.838 47.5402Z" fill="#FDEEE3"/>
<path d="M115.176 0H164.055C176.978 0 187.49 11.182 187.49 24.1049C187.49 37.0278 176.978 48.2098 164.055 48.2098H115.176C102.253 48.2098 91.7402 37.0278 91.7402 24.1049C91.7402 11.182 102.253 0 115.176 0ZM159.703 17.4091H119.528C115.845 17.4091 112.832 20.4222 112.832 24.1049C112.832 27.7876 115.845 30.8007 119.528 30.8007H159.703C163.385 30.8007 166.398 27.7876 166.398 24.1049C166.398 20.4222 163.385 17.4091 159.703 17.4091Z" fill="#FDEEE3"/>
<path d="M33.8808 47.5402V16.7395H0V0.669586H89.0542V16.7395H55.0395V47.5402H33.8808Z" fill="#FDEEE3"/>
</svg>

<svg width="810" height="215" fill="none" xmlns="http://www.w3.org/2000/svg"><path d="M742.003 191.249v5.356h43.791c1.875 0 2.946-1.004 2.946-2.678s-1.071-2.678-2.946-2.678h-43.791Zm43.791-17.409h-43.791v5.356h43.791c1.875 0 2.946-1.004 2.946-2.678s-1.071-2.678-2.946-2.678Zm7.365 34.818h-72.314v-46.871h72.314c9.843 0 16.74 4.687 16.74 13.392 0 4.553-2.143 7.968-5.825 10.044 3.682 2.075 5.825 5.49 5.825 10.043 0 8.705-6.897 13.392-16.74 13.392ZM628.451 208.658v-46.871h87.045v12.053h-65.887v5.356h65.887v12.053h-65.887v5.356h65.887v12.053h-87.045ZM529.321 208.658v-46.871h21.159v30.801h46.737v-30.801h21.158v30.801h5.357v21.427h-21.159v-5.357h-73.252ZM414.303 208.658v-46.871h28.256l26.047 32.14 26.046-32.14h29.328v46.871h-21.159v-27.52l-22.297 27.52h-23.837l-21.226-26.181v26.181h-21.158ZM408.936 161.787v46.871h-21.159v-26.783l-46.737 26.783h-21.159v-46.871h21.159v26.784l46.737-26.784h21.159ZM247.273 196.605h43.791c1.874 0 2.946-1.004 2.946-2.678s-1.072-2.678-2.946-2.678h-43.791v5.356Zm51.156 12.053h-72.315v-46.871h87.046v12.053h-65.887v5.356h51.156c9.843 0 16.739 6.027 16.739 14.731 0 8.705-6.896 14.731-16.739 14.731ZM194.263 178.527h-40.174c-3.683 0-6.696 3.013-6.696 6.696 0 3.682 3.013 6.695 6.696 6.695h40.174c3.683 0 6.696-3.013 6.696-6.695 0-3.683-3.013-6.696-6.696-6.696Zm-44.527-17.409h48.88c12.922 0 23.435 11.182 23.435 24.105s-10.513 24.105-23.435 24.105h-48.88c-10.847 0-20.02-7.902-22.632-18.079h-3.481v17.409h-21.159v-46.871h21.159v17.409h3.481c2.612-10.177 11.785-18.078 22.632-18.078ZM49.884 176.518l-26.047 32.14H0l37.965-46.871h23.837l37.965 46.871H75.93l-26.046-32.14ZM714.786 81.228h29.863l17.275 12.388 17.275-12.388h29.863l-32.206 23.101L810 128.099h-29.863l-18.213-13.057-18.213 13.057h-29.863l33.144-23.77-32.206-23.1ZM710.508 81.228V128.1H689.35v-26.783l-46.737 26.783h-21.159v-46.87h21.159v26.783l46.737-26.784h21.158ZM545.106 80.559h48.88c12.922 0 23.435 11.182 23.435 24.105s-10.513 24.105-23.435 24.105h-48.88c-12.923 0-23.435-11.182-23.435-24.105s10.512-24.105 23.435-24.105Zm44.527 17.409h-40.175c-3.682 0-6.695 3.013-6.695 6.696 0 3.682 3.013 6.696 6.695 6.696h40.175c3.683 0 6.696-3.014 6.696-6.696 0-3.683-3.013-6.696-6.696-6.696ZM451.089 110.69v5.357h43.791c1.875 0 2.946-1.005 2.946-2.679s-1.071-2.678-2.946-2.678h-43.791Zm43.791-17.41h-43.791v5.358h43.791c1.875 0 2.946-1.005 2.946-2.679s-1.071-2.678-2.946-2.678Zm7.365 34.819h-72.314v-46.87h72.314c9.843 0 16.74 4.686 16.74 13.391 0 4.553-2.143 7.968-5.826 10.044 3.683 2.075 5.826 5.49 5.826 10.043 0 8.705-6.897 13.392-16.74 13.392ZM369.39 128.099v-30.8h-33.881v-16.07h89.054v16.07h-34.014v30.8H369.39ZM231.714 102.655h43.79v-5.357h-43.79c-1.875 0-2.946 1.005-2.946 2.679s1.071 2.678 2.946 2.678Zm-5.357-21.427h70.306V128.1h-21.159v-9.374h-27.452l-13.593 9.374h-26.85l14.262-9.843c-8.972-2.075-14.262-10.177-14.262-18.28 0-9.373 7.03-18.748 18.748-18.748ZM155.683 95.96l-26.047 32.139h-23.837l37.965-46.87h23.837l37.965 46.87h-23.837l-26.046-32.14ZM34.617 103.392l-4.017 8.637h46v-14.73H44.125c-4.486 0-7.633 2.008-9.508 6.093Zm68.498 30.064H81.957v-5.357H21.159v5.357H0v-21.427h7.5l6.762-14.931c4.888-10.647 12.99-15.87 24.64-15.87H97.76v30.801h5.356v21.427ZM539.736 26.114h-43.79v5.356h43.79c1.875 0 2.947-1.004 2.947-2.678s-1.072-2.678-2.947-2.678Zm5.357 21.426h-70.306V.67h21.159v9.374h49.147c11.718 0 18.748 9.374 18.748 18.748s-7.03 18.748-18.748 18.748Zm42.585 0H566.52V.67h21.158v46.87ZM447.342 16.74h-43.79v5.356h43.79c1.875 0 2.946-1.004 2.946-2.678s-1.071-2.678-2.946-2.678Zm-43.79 30.8h-21.159V.67h70.306c11.718 0 18.748 9.374 18.748 18.748s-7.03 18.748-18.748 18.748h-49.147v9.374ZM329.812 15.4l-9.775 12.053h19.551L329.812 15.4ZM317.894.67h23.837l37.965 46.87h-23.837l-5.423-6.696h-41.247l-5.423 6.696h-23.837L317.894.67ZM212.682 30.131v5.357h43.791c1.875 0 2.946-1.005 2.946-2.679 0-1.673-1.071-2.678-2.946-2.678h-43.791Zm43.791-17.409h-43.791v5.357h43.791c1.875 0 2.946-1.005 2.946-2.679s-1.071-2.678-2.946-2.678Zm7.365 34.818h-72.315V.67h72.315c9.843 0 16.74 4.687 16.74 13.391 0 4.553-2.143 7.968-5.826 10.044 3.683 2.076 5.826 5.49 5.826 10.044 0 8.704-6.897 13.391-16.74 13.391ZM115.176 0h48.879c12.923 0 23.435 11.182 23.435 24.105S176.978 48.21 164.055 48.21h-48.879c-12.923 0-23.436-11.182-23.436-24.105S102.253 0 115.176 0Zm44.527 17.41h-40.175c-3.683 0-6.696 3.012-6.696 6.695 0 3.683 3.013 6.696 6.696 6.696h40.175c3.682 0 6.695-3.013 6.695-6.696s-3.013-6.696-6.695-6.696ZM33.88 47.54v-30.8H0V.67h89.054v16.07H55.04v30.8H33.881Z" fill="#FDEEE3"/></svg>
